X:1205
T:Polska efter Dal Jerk
T:(SvL Dalarna 1205)
O:Gärdebyn, Rättvik
R:Polska
S:Gudmund Tåberg
S:Dal Jerk
B:Svenska Låtar Dalarna
M:3/4
L:1/8
K:Dm
Q:138
v[EA,]F DD E^/C|[EA,]F DD E^/C|EF D2 E^/C|EF D2 E^/C|(EF) [DA,]4:|
|:ag ef fe/f/|e^c AF [FD]2|ag ef {/g}fe/f/|(e/f/)e/^c/ AF [DA,]E|^C2 D4:|

